src/assets/experiences/controlla.svg

<svg xmlns="http://www.w3.org/2000/svg" width="558" height="558" xmlns:v="https://vecta.io/nano"><path d="M52.19 321.51c19.04 0 33.41 10.71 37.97 28.04H68.72c-3.3-6.84-9.34-10.26-16.75-10.26-11.97 0-20.18 8.89-20.18 23.03s8.21 23.03 20.18 23.03c7.41 0 13.45-3.42 16.75-10.26h21.44c-4.56 17.33-18.93 27.93-37.97 27.93-23.59 0-40.24-16.76-40.24-40.7s16.65-40.81 40.24-40.81zm78.78 81.85c-18.7 0-32.83-12.54-32.83-32.72s14.47-32.72 33.06-32.72c18.69 0 33.06 12.54 33.06 32.72s-14.6 32.72-33.29 32.72zm0-16.87c6.95 0 13.45-5.13 13.45-15.85 0-10.83-6.38-15.84-13.22-15.84-7.07 0-13.23 5.01-13.23 15.84 0 10.72 5.93 15.85 13 15.85zm87.44-18.58c0-8.67-4.79-13.46-12.2-13.46s-12.2 4.79-12.2 13.46v34.54h-19.49v-63.61h19.49v8.43c3.88-5.36 10.72-9.12 19.27-9.12 14.7 0 24.51 10.03 24.51 27.13v37.17h-19.38v-34.54zm35.91-12.89h-7.76v-16.18h7.76v-15.51h19.49v15.51h12.77v16.18h-12.77v25.54c0 3.76 1.6 5.36 5.93 5.36h6.95v16.53h-9.92c-13.22 0-22.45-5.59-22.45-22.12v-25.31zm62.58 47.43h-19.49v-63.61h19.49v10.6c4.45-6.73 11.4-11.29 19.95-11.29v20.64h-5.36c-9.23 0-14.59 3.19-14.59 14.13v29.53zm58.14.91c-18.69 0-32.83-12.54-32.83-32.72s14.48-32.72 33.06-32.72c18.7 0 33.06 12.54 33.06 32.72s-14.59 32.72-33.29 32.72zm0-16.87c6.96 0 13.45-5.13 13.45-15.85 0-10.83-6.38-15.84-13.22-15.84-7.07 0-13.22 5.01-13.22 15.84 0 10.72 5.92 15.85 12.99 15.85zm43.55-68.4h19.49v84.36h-19.49v-84.36zm33.52 0h19.49v84.36h-19.49v-84.36zm57.68 19.83c9.46 0 16.19 4.34 19.61 9.92v-9h19.49v63.61H529.4v-9.01c-3.54 5.59-10.26 9.92-19.72 9.92-15.51 0-27.93-12.77-27.93-32.83 0-20.07 12.42-32.61 28.04-32.61zm5.7 16.99c-7.3 0-13.91 5.47-13.91 15.62 0 10.14 6.61 15.84 13.91 15.84 7.41 0 13.91-5.58 13.91-15.73 0-10.14-6.5-15.73-13.91-15.73zm-482.77 68.2c5.74 0 10.3 2.89 12.28 8.02h-4.14c-1.45-3.19-4.26-4.98-8.14-4.98-5.54 0-9.69 4.03-9.69 10.53 0 6.46 4.15 10.48 9.69 10.48 3.88 0 6.69-1.78 8.14-4.94H45c-1.98 5.1-6.54 7.95-12.28 7.95-7.41 0-13.22-5.55-13.22-13.49 0-7.95 5.81-13.57 13.22-13.57zm41.8 27.09c-7.44 0-13.3-5.58-13.3-13.52 0-7.95 5.86-13.53 13.3-13.53 7.49 0 13.3 5.58 13.3 13.53 0 7.94-5.81 13.52-13.3 13.52zm0-3c5.59 0 9.77-4.06 9.77-10.52 0-6.5-4.18-10.53-9.77-10.53-5.58 0-9.76 4.03-9.76 10.53 0 6.46 4.18 10.52 9.76 10.52zm51.08-23.79v26.53h-3.46l-13.91-21.09v21.09h-3.46v-26.53h3.46l13.91 21.06v-21.06h3.46zm39.1 0v26.53h-3.46l-13.91-21.09v21.09h-3.46v-26.53h3.46l13.91 21.06v-21.06h3.46zm32.53 2.85h-10.8v8.86h9.66v2.85h-9.66v9.12h10.8v2.85h-14.25v-26.53h14.25v2.85zm29.56-3.15c5.74 0 10.3 2.89 12.27 8.02h-4.14c-1.44-3.19-4.25-4.98-8.13-4.98-5.55 0-9.69 4.03-9.69 10.53 0 6.46 4.14 10.48 9.69 10.48 3.88 0 6.69-1.78 8.13-4.94h4.14c-1.97 5.1-6.53 7.95-12.27 7.95-7.41 0-13.22-5.55-13.22-13.49 0-7.95 5.81-13.57 13.22-13.57zm28.16.34h17.93v2.81h-7.22v23.68h-3.45v-23.68h-7.26v-2.81zm34.58 0h3.46v26.49h-3.46v-26.49zm42.56-.04v26.53h-3.46l-13.91-21.09v21.09h-3.46v-26.53h3.46l13.91 21.06v-21.06h3.46zm42.48 7.72h-4.14c-1.44-3.08-4.33-4.87-8.06-4.87-5.58 0-9.76 4.03-9.76 10.42 0 6.34 4.18 10.37 9.76 10.37 5.21 0 8.78-3.34 9.31-8.59h-10.56v-2.81h14.25v2.66c-.61 6.57-5.81 11.86-13 11.86-7.44 0-13.3-5.55-13.3-13.49 0-7.95 5.86-13.53 13.3-13.53 5.59 0 10.23 2.89 12.2 7.98zm62.59 5.62c0 8.21-5.36 13.19-14.06 13.19h-8.25v-26.49h8.25c8.7 0 14.06 5.09 14.06 13.3zm-14.06 10.34c6.91 0 10.52-3.88 10.52-10.34s-3.61-10.49-10.52-10.49h-4.79v20.83h4.79zm43.01 3.11c-7.44 0-13.3-5.58-13.3-13.52 0-7.95 5.86-13.53 13.3-13.53 7.49 0 13.3 5.58 13.3 13.53 0 7.94-5.81 13.52-13.3 13.52zm0-3c5.59 0 9.77-4.06 9.77-10.52 0-6.5-4.18-10.53-9.77-10.53-5.58 0-9.76 4.03-9.76 10.53 0 6.46 4.18 10.52 9.76 10.52zm28.62-23.75h17.93v2.81h-7.22v23.68h-3.45v-23.68h-7.26v-2.81zm42.98 26.75c-5.32 0-9.09-2.96-9.16-7.33h3.68c.23 2.2 1.79 4.41 5.48 4.41 3.34 0 5.32-1.9 5.32-4.41 0-7.14-14.33-2.58-14.33-12.43 0-4.37 3.53-7.33 8.78-7.33 5.05 0 8.36 2.77 8.78 6.8h-3.8c-.23-1.78-1.9-3.8-5.13-3.84-2.85-.07-5.1 1.41-5.1 4.26 0 6.84 14.29 2.58 14.29 12.39 0 3.76-3.08 7.48-8.81 7.48z" fill-rule="evenodd" fill="#2c2e35"/><g fill="none" stroke-width="20"><path d="M318.97 136.51l29.26 29.26" stroke="#2c2e35"/><path d="M251.28 126.86l4.14-4.15c13.74-13.74 36.01-13.74 49.75 0l13.8 13.8" stroke="#ff9e2b"/><path d="M235.22 142.92l16.05-16.06" stroke="#73c9de"/><path d="M216.23 229.51l-8.93-8.93c-13.73-13.74-13.73-36.01 0-49.75l27.92-27.91" stroke="#2c2e35"/><path d="M305.17 268.7c-13.74 13.73-36.01 13.73-49.75 0l-39.19-39.19" stroke="#73c9de"/><path d="M320.8 253.06L305.17 268.7" stroke="#ff9e2b"/></g><path d="M361.46 165.86a13.23 13.23 0 0 1-13.23 13.23c-7.31 0-13.24-5.92-13.24-13.23s5.93-13.23 13.24-13.23a13.23 13.23 0 0 1 13.23 13.23z" fill="#2c2e35"/></svg>

<svg xmlns="http://www.w3.org/2000/svg" viewBox="0 0 558 558" width="558" height="558">
	<style>
		tspan { white-space:pre }
		.shp0 { fill: #2c2e35 } 
		.shp1 { fill: none;stroke: #2c2e35;stroke-width: 20 } 
		.shp2 { fill: none;stroke: #ff9e2b;stroke-width: 20 } 
		.shp3 { fill: none;stroke: #73c9de;stroke-width: 20 } 
	</style>
	<g id="Logo">
		<path id="Controlla " fill-rule="evenodd" class="shp0" d="M52.19 321.51C71.23 321.51 85.6 332.22 90.16 349.55L68.72 349.55C65.42 342.71 59.38 339.29 51.97 339.29C40 339.29 31.79 348.18 31.79 362.32C31.79 376.46 40 385.35 51.97 385.35C59.38 385.35 65.42 381.93 68.72 375.09L90.16 375.09C85.6 392.42 71.23 403.02 52.19 403.02C28.6 403.02 11.95 386.26 11.95 362.32C11.95 338.38 28.6 321.51 52.19 321.51ZM130.97 403.36C112.27 403.36 98.14 390.82 98.14 370.64C98.14 350.46 112.61 337.92 131.2 337.92C149.89 337.92 164.26 350.46 164.26 370.64C164.26 390.82 149.66 403.36 130.97 403.36ZM130.97 386.49C137.92 386.49 144.42 381.36 144.42 370.64C144.42 359.81 138.04 354.8 131.2 354.8C124.13 354.8 117.97 359.81 117.97 370.64C117.97 381.36 123.9 386.49 130.97 386.49ZM218.41 367.91C218.41 359.24 213.62 354.45 206.21 354.45C198.8 354.45 194.01 359.24 194.01 367.91L194.01 402.45L174.52 402.45L174.52 338.84L194.01 338.84L194.01 347.27C197.89 341.91 204.73 338.15 213.28 338.15C227.98 338.15 237.79 348.18 237.79 365.28L237.79 402.45L218.41 402.45L218.41 367.91ZM254.32 355.02L246.56 355.02L246.56 338.84L254.32 338.84L254.32 323.33L273.81 323.33L273.81 338.84L286.58 338.84L286.58 355.02L273.81 355.02L273.81 380.56C273.81 384.32 275.41 385.92 279.74 385.92L286.69 385.92L286.69 402.45L276.77 402.45C263.55 402.45 254.32 396.86 254.32 380.33L254.32 355.02ZM316.9 402.45L297.41 402.45L297.41 338.84L316.9 338.84L316.9 349.44C321.35 342.71 328.3 338.15 336.85 338.15L336.85 358.79L331.49 358.79C322.26 358.79 316.9 361.98 316.9 372.92L316.9 402.45ZM375.04 403.36C356.35 403.36 342.21 390.82 342.21 370.64C342.21 350.46 356.69 337.92 375.27 337.92C393.97 337.92 408.33 350.46 408.33 370.64C408.33 390.82 393.74 403.36 375.04 403.36ZM375.04 386.49C382 386.49 388.49 381.36 388.49 370.64C388.49 359.81 382.11 354.8 375.27 354.8C368.2 354.8 362.05 359.81 362.05 370.64C362.05 381.36 367.97 386.49 375.04 386.49ZM418.59 318.09L438.08 318.09L438.08 402.45L418.59 402.45L418.59 318.09ZM452.11 318.09L471.6 318.09L471.6 402.45L452.11 402.45L452.11 318.09ZM509.79 337.92C519.25 337.92 525.98 342.26 529.4 347.84L529.4 338.84L548.89 338.84L548.89 402.45L529.4 402.45L529.4 393.44C525.86 399.03 519.14 403.36 509.68 403.36C494.17 403.36 481.75 390.59 481.75 370.53C481.75 350.46 494.17 337.92 509.79 337.92ZM515.49 354.91C508.19 354.91 501.58 360.38 501.58 370.53C501.58 380.67 508.19 386.37 515.49 386.37C522.9 386.37 529.4 380.79 529.4 370.64C529.4 360.5 522.9 354.91 515.49 354.91Z" />
		<path id="CONNECTING DOTS " fill-rule="evenodd" class="shp0" d="M32.72 423.11C38.46 423.11 43.02 426 45 431.13L40.86 431.13C39.41 427.94 36.6 426.15 32.72 426.15C27.18 426.15 23.03 430.18 23.03 436.68C23.03 443.14 27.18 447.16 32.72 447.16C36.6 447.16 39.41 445.38 40.86 442.22L45 442.22C43.02 447.32 38.46 450.17 32.72 450.17C25.31 450.17 19.5 444.62 19.5 436.68C19.5 428.73 25.31 423.11 32.72 423.11ZM74.52 450.2C67.08 450.2 61.22 444.62 61.22 436.68C61.22 428.73 67.08 423.15 74.52 423.15C82.01 423.15 87.82 428.73 87.82 436.68C87.82 444.62 82.01 450.2 74.52 450.2ZM74.52 447.2C80.11 447.2 84.29 443.14 84.29 436.68C84.29 430.18 80.11 426.15 74.52 426.15C68.94 426.15 64.76 430.18 64.76 436.68C64.76 443.14 68.94 447.2 74.52 447.2ZM125.6 423.41L125.6 449.94L122.14 449.94L108.23 428.85L108.23 449.94L104.77 449.94L104.77 423.41L108.23 423.41L122.14 444.47L122.14 423.41L125.6 423.41ZM164.7 423.41L164.7 449.94L161.24 449.94L147.33 428.85L147.33 449.94L143.87 449.94L143.87 423.41L147.33 423.41L161.24 444.47L161.24 423.41L164.7 423.41ZM197.23 426.26L186.43 426.26L186.43 435.12L196.09 435.12L196.09 437.97L186.43 437.97L186.43 447.09L197.23 447.09L197.23 449.94L182.98 449.94L182.98 423.41L197.23 423.41L197.23 426.26ZM226.79 423.11C232.53 423.11 237.09 426 239.06 431.13L234.92 431.13C233.48 427.94 230.67 426.15 226.79 426.15C221.24 426.15 217.1 430.18 217.1 436.68C217.1 443.14 221.24 447.16 226.79 447.16C230.67 447.16 233.48 445.38 234.92 442.22L239.06 442.22C237.09 447.32 232.53 450.17 226.79 450.17C219.38 450.17 213.57 444.62 213.57 436.68C213.57 428.73 219.38 423.11 226.79 423.11ZM254.95 423.45L272.88 423.45L272.88 426.26L265.66 426.26L265.66 449.94L262.21 449.94L262.21 426.26L254.95 426.26L254.95 423.45ZM289.53 423.45L292.99 423.45L292.99 449.94L289.53 449.94L289.53 423.45ZM332.09 423.41L332.09 449.94L328.63 449.94L314.72 428.85L314.72 449.94L311.26 449.94L311.26 423.41L314.72 423.41L328.63 444.47L328.63 423.41L332.09 423.41ZM374.57 431.13L370.43 431.13C368.99 428.05 366.1 426.26 362.37 426.26C356.79 426.26 352.61 430.29 352.61 436.68C352.61 443.02 356.79 447.05 362.37 447.05C367.58 447.05 371.15 443.71 371.68 438.46L361.12 438.46L361.12 435.65L375.37 435.65L375.37 438.31C374.76 444.88 369.56 450.17 362.37 450.17C354.93 450.17 349.07 444.62 349.07 436.68C349.07 428.73 354.93 423.15 362.37 423.15C367.96 423.15 372.6 426.04 374.57 431.13ZM437.16 436.75C437.16 444.96 431.8 449.94 423.1 449.94L414.85 449.94L414.85 423.45L423.1 423.45C431.8 423.45 437.16 428.54 437.16 436.75ZM423.1 447.09C430.01 447.09 433.62 443.21 433.62 436.75C433.62 430.29 430.01 426.26 423.1 426.26L418.31 426.26L418.31 447.09L423.1 447.09ZM466.11 450.2C458.67 450.2 452.81 444.62 452.81 436.68C452.81 428.73 458.67 423.15 466.11 423.15C473.6 423.15 479.41 428.73 479.41 436.68C479.41 444.62 473.6 450.2 466.11 450.2ZM466.11 447.2C471.7 447.2 475.88 443.14 475.88 436.68C475.88 430.18 471.7 426.15 466.11 426.15C460.53 426.15 456.35 430.18 456.35 436.68C456.35 443.14 460.53 447.2 466.11 447.2ZM494.73 423.45L512.66 423.45L512.66 426.26L505.44 426.26L505.44 449.94L501.99 449.94L501.99 426.26L494.73 426.26L494.73 423.45ZM537.71 450.2C532.39 450.2 528.62 447.24 528.55 442.87L532.23 442.87C532.46 445.07 534.02 447.28 537.71 447.28C541.05 447.28 543.03 445.38 543.03 442.87C543.03 435.73 528.7 440.29 528.7 430.44C528.7 426.07 532.23 423.11 537.48 423.11C542.53 423.11 545.84 425.88 546.26 429.91L542.46 429.91C542.23 428.13 540.56 426.11 537.33 426.07C534.48 426 532.23 427.48 532.23 430.33C532.23 437.17 546.52 432.91 546.52 442.72C546.52 446.48 543.44 450.2 537.71 450.2Z" />
		<g id="Image">
			<path id="Path 3" class="shp1" d="M318.97 136.51L348.23 165.77" />
			<path id="Path 4" class="shp2" d="M251.28 126.86L255.42 122.71C269.16 108.97 291.43 108.97 305.17 122.71L318.97 136.51" />
			<path id="Path 5" class="shp3" d="M235.22 142.92L251.27 126.86" />
			<path id="Path 6" class="shp1" d="M216.23 229.51L207.3 220.58C193.57 206.84 193.57 184.57 207.3 170.83L235.22 142.92" />
			<path id="Path 7" class="shp3" d="M305.17 268.7C291.43 282.43 269.16 282.43 255.42 268.7L216.23 229.51" />
			<path id="Path 8" class="shp2" d="M320.8 253.06L305.17 268.7" />
			<path id="Path 9" class="shp0" d="M361.46 165.86C361.46 173.17 355.54 179.09 348.23 179.09C340.92 179.09 334.99 173.17 334.99 165.86C334.99 158.55 340.92 152.63 348.23 152.63C355.54 152.63 361.46 158.55 361.46 165.86Z" />
		</g>
	</g>
</svg>
